X:1
T:Rokeby. JaW.329
R:strathspey
M:C
L:1/8
%Q:1/2=80
S:James Winder Ms, Lancashire, 1835-41
R:.Strathspey
O:England
A:Wyresdale,Lancashire
N:Strathspey?
Z:vmp.Chris Partington, Aug 2004
K:F
|: (F<A)(F<A) c2(A<F) | (B<G)(G<F) E<GG2 | (F<A)(F<A) c2(A<F) | (G<B)(AG) F2F2 :|
|: f<af<a gec2  | d<fd<f ecA2  | B<dB<d G<cG<c | BAGF   ECDE |
   F<AF<A c2A<F | B<GG<F E<GG2 | F<AF<A c2A<F  | d<fe<g f2F2 |]
